Newaita-dark/apps/scalable/korganizer.svg

<?xml version="1.0" encoding="UTF-8"?>
<svg xmlns="http://www.w3.org/2000/svg" xmlns:xlink="http://www.w3.org/1999/xlink" width="512pt" height="512pt" viewBox="0 0 512 512" version="1.1">
<defs>
<linearGradient id="linear0" gradientUnits="userSpaceOnUse" x1="254" y1="233.5" x2="254" y2="254.666672" gradientTransform="matrix(1.000095,0,0,1.000095,-0.000061041,215.020562)">
<stop offset="0" style="stop-color:rgb(0%,0%,0%);stop-opacity:0.27451;"/>
<stop offset="1" style="stop-color:rgb(0%,0%,0%);stop-opacity:0;"/>
</linearGradient>
<radialGradient id="radial0" gradientUnits="userSpaceOnUse" cx="450.908936" cy="189.579361" fx="450.908936" fy="189.579361" r="21.166656" gradientTransform="matrix(0.00000278673,-1.250119,-2.250215,-0.00000162462,849.966879,1017.525321)">
<stop offset="0" style="stop-color:rgb(0%,0%,0%);stop-opacity:0.313725;"/>
<stop offset="0.222222" style="stop-color:rgb(0%,0%,0%);stop-opacity:0.27451;"/>
<stop offset="1" style="stop-color:rgb(0%,0%,0%);stop-opacity:0;"/>
</radialGradient>
<radialGradient id="radial1" gradientUnits="userSpaceOnUse" cx="450.908936" cy="189.579361" fx="450.908936" fy="189.579361" r="21.166656" gradientTransform="matrix(-0.00000278673,1.250119,2.250215,0.00000162462,-339.272325,-120.439662)">
<stop offset="0" style="stop-color:rgb(0%,0%,0%);stop-opacity:0.313725;"/>
<stop offset="0.222222" style="stop-color:rgb(0%,0%,0%);stop-opacity:0.27451;"/>
<stop offset="1" style="stop-color:rgb(0%,0%,0%);stop-opacity:0;"/>
</radialGradient>
<radialGradient id="radial2" gradientUnits="userSpaceOnUse" cx="450.908936" cy="189.579361" fx="450.908936" fy="189.579361" r="21.166656" gradientTransform="matrix(-0.00000278673,-1.250119,2.250215,-0.00000162462,-339.272325,1017.525321)">
<stop offset="0" style="stop-color:rgb(0%,0%,0%);stop-opacity:0.313725;"/>
<stop offset="0.222222" style="stop-color:rgb(0%,0%,0%);stop-opacity:0.27451;"/>
<stop offset="1" style="stop-color:rgb(0%,0%,0%);stop-opacity:0;"/>
</radialGradient>
<radialGradient id="radial3" gradientUnits="userSpaceOnUse" cx="450.908936" cy="189.579361" fx="450.908936" fy="189.579361" r="21.166656" gradientTransform="matrix(0.00000278673,1.250119,-2.250215,0.00000162462,849.966856,-120.43967)">
<stop offset="0" style="stop-color:rgb(0%,0%,0%);stop-opacity:0.313725;"/>
<stop offset="0.222222" style="stop-color:rgb(0%,0%,0%);stop-opacity:0.27451;"/>
<stop offset="1" style="stop-color:rgb(0%,0%,0%);stop-opacity:0;"/>
</radialGradient>
<linearGradient id="linear1" gradientUnits="userSpaceOnUse" x1="254" y1="-168.666656" x2="254" y2="233.5" gradientTransform="matrix(1.000095,0,0,1.000095,0,215.020531)">
<stop offset="0" style="stop-color:rgb(89.803922%,45.098039%,45.098039%);stop-opacity:1;"/>
<stop offset="1" style="stop-color:rgb(93.72549%,32.54902%,31.372549%);stop-opacity:1;"/>
</linearGradient>
<linearGradient id="linear2" gradientUnits="userSpaceOnUse" x1="296.333344" y1="-52.25" x2="296.333344" y2="-94.583336" gradientTransform="matrix(1,0,0,1,0,-8.916562)">
<stop offset="0" style="stop-color:rgb(87.843137%,87.843137%,87.843137%);stop-opacity:1;"/>
<stop offset="1" style="stop-color:rgb(93.333333%,93.333333%,93.333333%);stop-opacity:1;"/>
</linearGradient>
<linearGradient id="linear3" gradientUnits="userSpaceOnUse" x1="127" y1="-62.833332" x2="127" y2="-105.166656" gradientTransform="matrix(1,0,0,1,1.539017,3.715165)">
<stop offset="0" style="stop-color:rgb(87.843137%,87.843137%,87.843137%);stop-opacity:1;"/>
<stop offset="1" style="stop-color:rgb(93.333333%,93.333333%,93.333333%);stop-opacity:1;"/>
</linearGradient>
<linearGradient id="linear4" gradientUnits="userSpaceOnUse" x1="296.333344" y1="-52.25" x2="296.333344" y2="-94.583336" >
<stop offset="0" style="stop-color:rgb(87.843137%,87.843137%,87.843137%);stop-opacity:1;"/>
<stop offset="1" style="stop-color:rgb(93.333333%,93.333333%,93.333333%);stop-opacity:1;"/>
</linearGradient>
<linearGradient id="linear5" gradientUnits="userSpaceOnUse" x1="127" y1="-52.25" x2="127" y2="-94.583336" >
<stop offset="0" style="stop-color:rgb(87.843137%,87.843137%,87.843137%);stop-opacity:1;"/>
<stop offset="1" style="stop-color:rgb(93.333333%,93.333333%,93.333333%);stop-opacity:1;"/>
</linearGradient>
<linearGradient id="linear6" gradientUnits="userSpaceOnUse" x1="296.333344" y1="-52.25" x2="296.333344" y2="-94.583336" >
<stop offset="0" style="stop-color:rgb(87.843137%,87.843137%,87.843137%);stop-opacity:1;"/>
<stop offset="1" style="stop-color:rgb(93.333333%,93.333333%,93.333333%);stop-opacity:1;"/>
</linearGradient>
<linearGradient id="linear7" gradientUnits="userSpaceOnUse" x1="127" y1="-52.25" x2="127" y2="-94.583336" >
<stop offset="0" style="stop-color:rgb(87.843137%,87.843137%,87.843137%);stop-opacity:1;"/>
<stop offset="1" style="stop-color:rgb(93.333333%,93.333333%,93.333333%);stop-opacity:1;"/>
</linearGradient>
<linearGradient id="linear8" gradientUnits="userSpaceOnUse" x1="296.333344" y1="-52.25" x2="296.333344" y2="-94.583336" >
<stop offset="0" style="stop-color:rgb(87.843137%,87.843137%,87.843137%);stop-opacity:1;"/>
<stop offset="1" style="stop-color:rgb(93.333333%,93.333333%,93.333333%);stop-opacity:1;"/>
</linearGradient>
<linearGradient id="linear9" gradientUnits="userSpaceOnUse" x1="127" y1="-52.25" x2="127" y2="-94.583336" >
<stop offset="0" style="stop-color:rgb(87.843137%,87.843137%,87.843137%);stop-opacity:1;"/>
<stop offset="1" style="stop-color:rgb(93.333333%,93.333333%,93.333333%);stop-opacity:1;"/>
</linearGradient>
</defs>
<g id="surface1">
<path style=" stroke:none;fill-rule:nonzero;fill:url(#linear0);" d="M 82.027344 448.542969 L 428.664062 448.542969 L 428.664062 469.710938 L 82.027344 469.710938 Z M 82.027344 448.542969 "/>
<path style=" stroke:none;fill-rule:nonzero;fill:url(#radial0);" d="M 428.664062 448.542969 L 471.003906 448.542969 L 471.003906 427.375 L 428.664062 427.375 Z M 428.664062 448.542969 "/>
<path style=" stroke:none;fill-rule:nonzero;fill:url(#radial1);" d="M 82.027344 448.542969 L 39.691406 448.542969 L 39.691406 469.710938 L 82.027344 469.710938 Z M 82.027344 448.542969 "/>
<path style=" stroke:none;fill-rule:nonzero;fill:url(#radial2);" d="M 82.027344 448.542969 L 39.691406 448.542969 L 39.691406 427.375 L 82.027344 427.375 Z M 82.027344 448.542969 "/>
<path style=" stroke:none;fill-rule:nonzero;fill:url(#radial3);" d="M 428.664062 448.542969 L 471.003906 448.542969 L 471.003906 469.710938 L 428.664062 469.710938 Z M 428.664062 448.542969 "/>
<path style=" stroke:none;fill-rule:nonzero;fill:url(#linear1);" d="M 58.214844 46.335938 L 449.835938 46.335938 C 458.601562 46.335938 465.710938 53.445312 465.710938 62.214844 L 465.710938 432.667969 C 465.710938 441.433594 458.601562 448.542969 449.835938 448.542969 L 58.214844 448.542969 C 49.445312 448.542969 42.335938 441.433594 42.335938 432.667969 L 42.335938 62.214844 C 42.335938 53.445312 49.445312 46.335938 58.214844 46.335938 Z M 58.214844 46.335938 "/>
<path style=" stroke:none;fill-rule:nonzero;fill:rgb(0%,0%,0%);fill-opacity:0.196078;" d="M 63.507812 448.542969 C 51.777344 448.542969 42.335938 439.101562 42.335938 427.375 L 42.335938 424.726562 C 42.335938 436.457031 51.777344 445.898438 63.507812 445.898438 L 444.542969 445.898438 C 456.269531 445.898438 465.710938 436.457031 465.710938 424.726562 L 465.710938 427.375 C 465.710938 439.101562 456.269531 448.542969 444.542969 448.542969 Z M 63.507812 448.542969 "/>
<path style=" stroke:none;fill-rule:nonzero;fill:rgb(90.196079%,90.196079%,90.196079%);fill-opacity:0.588235;" d="M 63.507812 46.335938 C 51.777344 46.335938 42.335938 55.777344 42.335938 67.507812 L 42.335938 70.152344 C 42.335938 58.425781 51.777344 48.984375 63.507812 48.984375 L 444.542969 48.984375 C 456.269531 48.984375 465.710938 58.425781 465.710938 70.152344 L 465.710938 67.507812 C 465.710938 55.777344 456.269531 46.335938 444.542969 46.335938 Z M 63.507812 46.335938 "/>
<path style=" stroke:none;fill-rule:nonzero;fill:rgb(12.941177%,12.941177%,12.941177%);fill-opacity:1;" d="M 58.214844 44.839844 C 48.613281 44.839844 40.835938 52.613281 40.835938 62.214844 L 40.835938 432.667969 C 40.835938 442.265625 48.613281 450.042969 58.214844 450.042969 L 449.832031 450.042969 C 459.433594 450.042969 467.210938 442.265625 467.210938 432.667969 L 467.210938 62.214844 C 467.210938 52.613281 459.433594 44.839844 449.832031 44.839844 Z M 58.214844 47.839844 L 449.832031 47.839844 C 457.824219 47.839844 464.210938 54.222656 464.210938 62.214844 L 464.210938 432.667969 C 464.210938 440.65625 457.824219 447.042969 449.832031 447.042969 L 58.214844 447.042969 C 50.222656 447.042969 43.839844 440.65625 43.839844 432.667969 L 43.839844 62.214844 C 43.839844 54.222656 50.222656 47.839844 58.214844 47.839844 Z M 58.214844 47.839844 "/>
<path style="fill-rule:nonzero;fill:url(#linear2);stroke-width:3;stroke-linecap:round;stroke-linejoin:round;stroke:rgb(12.941177%,12.941177%,12.941177%);stroke-opacity:1;stroke-miterlimit:4;" d="M 190.501339 -103.498929 L 402.16472 -103.498929 C 408.011818 -103.498929 412.749647 -98.7611 412.749647 -92.917908 L 412.749647 -73.415864 C 412.749647 -67.572672 408.011818 -62.834844 402.16472 -62.834844 L 190.501339 -62.834844 C 184.654241 -62.834844 179.916413 -67.572672 179.916413 -73.415864 L 179.916413 -92.917908 C 179.916413 -98.7611 184.654241 -103.498929 190.501339 -103.498929 Z M 190.501339 -103.498929 " transform="matrix(1.000095,0,0,1.000095,0,215.020531)"/>
<path style="fill-rule:nonzero;fill:url(#linear3);stroke-width:3;stroke-linecap:butt;stroke-linejoin:round;stroke:rgb(12.941177%,12.941177%,12.941177%);stroke-opacity:1;stroke-miterlimit:4;" d="M 98.342171 -100.280486 C 94.342553 -96.280868 94.45973 -89.722901 98.603865 -85.574859 L 120.793152 -63.389478 L 121.054846 -63.127784 L 121.31654 -62.862185 C 123.273384 -60.909246 125.839545 -59.940589 128.436954 -59.940589 C 128.468201 -59.940589 128.503354 -59.940589 128.534601 -59.940589 C 128.569753 -59.940589 128.608812 -59.940589 128.643965 -59.940589 C 131.241373 -59.940589 133.803629 -60.909246 135.760473 -62.862185 L 136.022167 -63.123878 L 136.283861 -63.389478 L 165.902126 -93.007743 C 170.050167 -97.151879 170.167344 -103.709846 166.167726 -107.709464 L 165.640432 -108.236758 C 161.640814 -112.236376 155.082847 -112.1192 150.934805 -107.975064 L 128.538506 -85.574859 L 113.571186 -100.54218 C 109.42705 -104.690222 102.869083 -104.807398 98.865559 -100.80778 Z M 98.342171 -100.280486 " transform="matrix(1.000095,0,0,1.000095,0,215.020531)"/>
<path style="fill-rule:nonzero;fill:url(#linear4);stroke-width:3;stroke-linecap:round;stroke-linejoin:round;stroke:rgb(12.941177%,12.941177%,12.941177%);stroke-opacity:1;stroke-miterlimit:4;" d="M 190.501339 -94.583973 L 402.16472 -94.583973 C 408.011818 -94.583973 412.749647 -89.846144 412.749647 -83.999046 L 412.749647 -64.500908 C 412.749647 -58.653811 408.011818 -53.915982 402.16472 -53.915982 L 190.501339 -53.915982 C 184.654241 -53.915982 179.916413 -58.653811 179.916413 -64.500908 L 179.916413 -83.999046 C 179.916413 -89.846144 184.654241 -94.583973 190.501339 -94.583973 Z M 190.501339 -94.583973 " transform="matrix(1.000095,0,0,1.000095,0,278.526599)"/>
<path style="fill-rule:nonzero;fill:url(#linear5);stroke-width:3;stroke-linecap:butt;stroke-linejoin:round;stroke:rgb(12.941177%,12.941177%,12.941177%);stroke-opacity:1;stroke-miterlimit:4;" d="M 126.999591 -94.583973 C 138.689881 -94.583973 148.165538 -85.108316 148.165538 -73.418026 C 148.165538 -61.727736 138.689881 -52.248172 126.999591 -52.248172 C 115.309301 -52.248172 105.833643 -61.727736 105.833643 -73.418026 C 105.833643 -85.108316 115.309301 -94.583973 126.999591 -94.583973 Z M 126.999591 -94.583973 " transform="matrix(1.000095,0,0,1.000095,0,278.526599)"/>
<path style="fill-rule:nonzero;fill:url(#linear6);stroke-width:3;stroke-linecap:round;stroke-linejoin:round;stroke:rgb(12.941177%,12.941177%,12.941177%);stroke-opacity:1;stroke-miterlimit:4;" d="M 190.501339 -94.584544 L 402.16472 -94.584544 C 408.011818 -94.584544 412.749647 -89.846715 412.749647 -83.999617 L 412.749647 -64.501479 C 412.749647 -58.654381 408.011818 -53.916552 402.16472 -53.916552 L 190.501339 -53.916552 C 184.654241 -53.916552 179.916413 -58.654381 179.916413 -64.501479 L 179.916413 -83.999617 C 179.916413 -89.846715 184.654241 -94.584544 190.501339 -94.584544 Z M 190.501339 -94.584544 " transform="matrix(1.000095,0,0,1.000095,0,352.617014)"/>
<path style="fill-rule:nonzero;fill:url(#linear7);stroke-width:3;stroke-linecap:butt;stroke-linejoin:round;stroke:rgb(12.941177%,12.941177%,12.941177%);stroke-opacity:1;stroke-miterlimit:4;" d="M 126.999591 -94.584544 C 138.689881 -94.584544 148.165538 -85.10498 148.165538 -73.418596 C 148.165538 -61.728306 138.689881 -52.248743 126.999591 -52.248743 C 115.309301 -52.248743 105.833643 -61.728306 105.833643 -73.418596 C 105.833643 -85.10498 115.309301 -94.584544 126.999591 -94.584544 Z M 126.999591 -94.584544 " transform="matrix(1.000095,0,0,1.000095,0,352.617014)"/>
<path style="fill-rule:nonzero;fill:url(#linear8);stroke-width:3;stroke-linecap:round;stroke-linejoin:round;stroke:rgb(12.941177%,12.941177%,12.941177%);stroke-opacity:1;stroke-miterlimit:4;" d="M 190.501339 -94.585103 L 402.16472 -94.585103 C 408.011818 -94.585103 412.749647 -89.843368 412.749647 -84.000176 L 412.749647 -64.502038 C 412.749647 -58.65494 408.011818 -53.917111 402.16472 -53.917111 L 190.501339 -53.917111 C 184.654241 -53.917111 179.916413 -58.65494 179.916413 -64.502038 L 179.916413 -84.000176 C 179.916413 -89.843368 184.654241 -94.585103 190.501339 -94.585103 Z M 190.501339 -94.585103 " transform="matrix(1.000095,0,0,1.000095,0,426.707416)"/>
<path style="fill-rule:nonzero;fill:url(#linear9);stroke-width:3;stroke-linecap:butt;stroke-linejoin:round;stroke:rgb(12.941177%,12.941177%,12.941177%);stroke-opacity:1;stroke-miterlimit:4;" d="M 126.999591 -94.585103 C 138.689881 -94.585103 148.165538 -85.105539 148.165538 -73.415249 C 148.165538 -61.724959 138.689881 -52.249302 126.999591 -52.249302 C 115.309301 -52.249302 105.833643 -61.724959 105.833643 -73.415249 C 105.833643 -85.105539 115.309301 -94.585103 126.999591 -94.585103 Z M 126.999591 -94.585103 " transform="matrix(1.000095,0,0,1.000095,0,426.707416)"/>
</g>
</svg>

<svg xmlns="http://www.w3.org/2000/svg" width="512pt" height="512pt" viewBox="0 0 512 512"><defs><linearGradient id="a" gradientUnits="userSpaceOnUse" x1="254" y1="233.5" x2="254" y2="254.667" gradientTransform="matrix(1.0001 0 0 1.0001 0 215.02)"><stop offset="0" stop-opacity=".275"/><stop offset="1" stop-opacity="0"/></linearGradient><radialGradient id="b" gradientUnits="userSpaceOnUse" cx="450.909" cy="189.579" fx="450.909" fy="189.579" r="21.167" gradientTransform="matrix(0 -1.25012 -2.25021 0 849.967 1017.525)"><stop offset="0" stop-opacity=".314"/><stop offset=".222" stop-opacity=".275"/><stop offset="1" stop-opacity="0"/></radialGradient><radialGradient id="c" gradientUnits="userSpaceOnUse" cx="450.909" cy="189.579" fx="450.909" fy="189.579" r="21.167" gradientTransform="matrix(0 1.25012 2.25021 0 -339.272 -120.44)"><stop offset="0" stop-opacity=".314"/><stop offset=".222" stop-opacity=".275"/><stop offset="1" stop-opacity="0"/></radialGradient><radialGradient id="d" gradientUnits="userSpaceOnUse" cx="450.909" cy="189.579" fx="450.909" fy="189.579" r="21.167" gradientTransform="matrix(0 -1.25012 2.25021 0 -339.272 1017.525)"><stop offset="0" stop-opacity=".314"/><stop offset=".222" stop-opacity=".275"/><stop offset="1" stop-opacity="0"/></radialGradient><radialGradient id="e" gradientUnits="userSpaceOnUse" cx="450.909" cy="189.579" fx="450.909" fy="189.579" r="21.167" gradientTransform="matrix(0 1.25012 -2.25021 0 849.967 -120.44)"><stop offset="0" stop-opacity=".314"/><stop offset=".222" stop-opacity=".275"/><stop offset="1" stop-opacity="0"/></radialGradient><linearGradient id="f" gradientUnits="userSpaceOnUse" x1="254" y1="-168.667" x2="254" y2="233.5" gradientTransform="matrix(1.0001 0 0 1.0001 0 215.02)"><stop offset="0" stop-color="#e57373"/><stop offset="1" stop-color="#ef5350"/></linearGradient><linearGradient id="g" gradientUnits="userSpaceOnUse" x1="296.333" y1="-52.25" x2="296.333" y2="-94.583" gradientTransform="translate(0 -8.917)"><stop offset="0" stop-color="#e0e0e0"/><stop offset="1" stop-color="#eee"/></linearGradient><linearGradient id="h" gradientUnits="userSpaceOnUse" x1="127" y1="-62.833" x2="127" y2="-105.167" gradientTransform="translate(1.539 3.715)"><stop offset="0" stop-color="#e0e0e0"/><stop offset="1" stop-color="#eee"/></linearGradient><linearGradient id="i" gradientUnits="userSpaceOnUse" x1="296.333" y1="-52.25" x2="296.333" y2="-94.583"><stop offset="0" stop-color="#e0e0e0"/><stop offset="1" stop-color="#eee"/></linearGradient><linearGradient id="j" gradientUnits="userSpaceOnUse" x1="127" y1="-52.25" x2="127" y2="-94.583"><stop offset="0" stop-color="#e0e0e0"/><stop offset="1" stop-color="#eee"/></linearGradient><linearGradient id="k" gradientUnits="userSpaceOnUse" x1="296.333" y1="-52.25" x2="296.333" y2="-94.583"><stop offset="0" stop-color="#e0e0e0"/><stop offset="1" stop-color="#eee"/></linearGradient><linearGradient id="l" gradientUnits="userSpaceOnUse" x1="127" y1="-52.25" x2="127" y2="-94.583"><stop offset="0" stop-color="#e0e0e0"/><stop offset="1" stop-color="#eee"/></linearGradient><linearGradient id="m" gradientUnits="userSpaceOnUse" x1="296.333" y1="-52.25" x2="296.333" y2="-94.583"><stop offset="0" stop-color="#e0e0e0"/><stop offset="1" stop-color="#eee"/></linearGradient><linearGradient id="n" gradientUnits="userSpaceOnUse" x1="127" y1="-52.25" x2="127" y2="-94.583"><stop offset="0" stop-color="#e0e0e0"/><stop offset="1" stop-color="#eee"/></linearGradient></defs><path d="M82.027 448.543h346.637v21.168H82.027zm0 0" fill="url(#a)"/><path d="M428.664 448.543h42.34v-21.168h-42.34zm0 0" fill="url(#b)"/><path d="M82.027 448.543H39.691v21.168h42.336zm0 0" fill="url(#c)"/><path d="M82.027 448.543H39.691v-21.168h42.336zm0 0" fill="url(#d)"/><path d="M428.664 448.543h42.34v21.168h-42.34zm0 0" fill="url(#e)"/><path d="M58.215 46.336h391.62c8.767 0 15.876 7.11 15.876 15.879v370.453c0 8.766-7.11 15.875-15.875 15.875H58.215c-8.77 0-15.88-7.11-15.88-15.875V62.215c0-8.77 7.11-15.88 15.88-15.88zm0 0" fill="url(#f)"/><path d="M63.508 448.543a21.123 21.123 0 0 1-21.172-21.168v-2.648a21.124 21.124 0 0 0 21.172 21.171h381.035a21.123 21.123 0 0 0 21.168-21.171v2.648a21.122 21.122 0 0 1-21.168 21.168zm0 0" fill-opacity=".196"/><path d="M63.508 46.336a21.124 21.124 0 0 0-21.172 21.172v2.644a21.123 21.123 0 0 1 21.172-21.168h381.035a21.122 21.122 0 0 1 21.168 21.168v-2.644a21.123 21.123 0 0 0-21.168-21.172zm0 0" fill="#e6e6e6" fill-opacity=".588"/><path d="M58.215 44.84c-9.602 0-17.38 7.773-17.38 17.375v370.453c0 9.598 7.778 17.375 17.38 17.375h391.617c9.602 0 17.379-7.777 17.379-17.375V62.215c0-9.602-7.777-17.375-17.379-17.375zm0 3h391.617a14.31 14.31 0 0 1 14.379 14.375v370.453a14.313 14.313 0 0 1-14.379 14.375H58.215a14.31 14.31 0 0 1-14.375-14.375V62.215A14.308 14.308 0 0 1 58.215 47.84zm0 0" fill="#212121"/><path d="M190.501-103.499h211.664c5.847 0 10.585 4.738 10.585 10.581v19.502c0 5.843-4.738 10.581-10.585 10.581H190.5c-5.847 0-10.585-4.738-10.585-10.58v-19.503c0-5.843 4.738-10.58 10.585-10.58zm0 0" transform="matrix(1.0001 0 0 1.0001 0 215.02)" fill="url(#g)" stroke-width="3" stroke-linecap="round" stroke-linejoin="round" stroke="#212121"/><path d="M98.342-100.28c-4 4-3.882 10.557.262 14.705l22.19 22.186.26.261.263.266c1.956 1.953 4.523 2.921 7.12 2.921H128.644c2.597 0 5.16-.968 7.116-2.921l.262-.262.262-.265 29.618-29.619c4.148-4.144 4.265-10.702.266-14.701l-.528-.528c-4-4-10.557-3.882-14.705.262l-22.396 22.4-14.968-14.967c-4.144-4.148-10.702-4.265-14.705-.266zm0 0" transform="matrix(1.0001 0 0 1.0001 0 215.02)" fill="url(#h)" stroke-width="3" stroke-linejoin="round" stroke="#212121"/><path d="M190.501-94.584h211.664c5.847 0 10.585 4.738 10.585 10.585v19.498c0 5.847-4.738 10.585-10.585 10.585H190.5c-5.847 0-10.585-4.738-10.585-10.585v-19.498c0-5.847 4.738-10.585 10.585-10.585zm0 0" transform="matrix(1.0001 0 0 1.0001 0 278.527)" fill="url(#i)" stroke-width="3" stroke-linecap="round" stroke-linejoin="round" stroke="#212121"/><path d="M127-94.584c11.69 0 21.166 9.476 21.166 21.166S138.69-52.248 127-52.248s-21.166-9.48-21.166-21.17c0-11.69 9.475-21.166 21.166-21.166zm0 0" transform="matrix(1.0001 0 0 1.0001 0 278.527)" fill="url(#j)" stroke-width="3" stroke-linejoin="round" stroke="#212121"/><path d="M190.501-94.585h211.664c5.847 0 10.585 4.738 10.585 10.585V-64.5c0 5.847-4.738 10.584-10.585 10.584H190.5c-5.847 0-10.585-4.737-10.585-10.584V-84c0-5.847 4.738-10.585 10.585-10.585zm0 0" transform="matrix(1.0001 0 0 1.0001 0 352.617)" fill="url(#k)" stroke-width="3" stroke-linecap="round" stroke-linejoin="round" stroke="#212121"/><path d="M127-94.585c11.69 0 21.166 9.48 21.166 21.166 0 11.69-9.476 21.17-21.166 21.17s-21.166-9.48-21.166-21.17c0-11.686 9.475-21.166 21.166-21.166zm0 0" transform="matrix(1.0001 0 0 1.0001 0 352.617)" fill="url(#l)" stroke-width="3" stroke-linejoin="round" stroke="#212121"/><path d="M190.501-94.585h211.664c5.847 0 10.585 4.742 10.585 10.585v19.498c0 5.847-4.738 10.585-10.585 10.585H190.5c-5.847 0-10.585-4.738-10.585-10.585V-84c0-5.843 4.738-10.585 10.585-10.585zm0 0" transform="matrix(1.0001 0 0 1.0001 0 426.707)" fill="url(#m)" stroke-width="3" stroke-linecap="round" stroke-linejoin="round" stroke="#212121"/><path d="M127-94.585c11.69 0 21.166 9.48 21.166 21.17 0 11.69-9.476 21.166-21.166 21.166s-21.166-9.476-21.166-21.166 9.475-21.17 21.166-21.17zm0 0" transform="matrix(1.0001 0 0 1.0001 0 426.707)" fill="url(#n)" stroke-width="3" stroke-linejoin="round" stroke="#212121"/></svg>
